X:849
T:Mo Chailin Dileas Donn
S:Ossian, The Carrying Stream
Z:Nigel Gatherer
M:4/4
L:1/8
K:G
G3 G A2 B2 | e4 d3 c | B G3 E3  F | G6 z2 |
G3 G A2 B2 | g4 f3 g | e3 d B2 d2 | e6 zg |
d3 B d2 ef | g4 f3 g | e3 d B2 d2 | e6 zg |
d3 e d2 B2 | e4 d3 c | B G3 E3  F | G6 z2 |]
